X: 13469
T: Florinda
R: barndance
M: 4/4
K: Dmajor
A4 A2/d2/ f2|e2 f4 d2|c6 d2|f2 e2/d2/ c6/ B2/|A6 B2/c2/|
d2 e2 f2/d2/ F2|E4 D2 F2/G2/|B2 A2 d2 e2:|f2 e2/d2/ e2 f2|
d2 c2 d2 e2|B6/ c2/ d6/ e2/|A4A2/A2/d2/e2/|f2/e2/ d2 e2/d2/ c2|
B2 d2 A2 d2|1 G2 B2 A2 E2|F4 D2 d2/e2/:|2 G2 B2 c2 e2||

